X:234
T: ICH WEISS NICHT BIN ICH REICH ODER ARM
N: E1374
O: Europa, Mitteleuropa, Deutschland, Schlesien; Franken; Baden; Hessen
R: Staende -, Soldaten -, Kriegs - Lied
M: 4/4
L: 1/8
K: G
D2 | G2B2d2BG | F2A2c2
AF | G2B2d2cB | B2A2z2
AB | c2c2eedc | B2B2d2
BG | AAAAdcBA | A2G2z2
AB | c2c2eedc | B2B2d2
BG | AAAAdcBA | A2G2z2

